src/assets/duotone/PresentionChart.svg

<?xml version="1.0" encoding="UTF-8"?>
<svg width="24" height="24" viewBox="0 0 24 24" xmlns="http://www.w3.org/2000/svg">
 <path d="m21 2v12.1c0 1.9-1 2.9-2.9 2.9h-12.2c-1.9 0-2.9-1-2.9-2.9v-12.1h18z" opacity=".4"/>
 <path d="m22 2.75h-20c-0.41 0-0.75-0.34-0.75-0.75s0.34-0.75 0.75-0.75h20c0.41 0 0.75 0.34 0.75 0.75s-0.34 0.75-0.75 0.75z"/>
 <path d="m16.67 22.34c-0.13 0.26-0.4 0.41-0.67 0.41-0.11 0-0.23-0.03-0.33-0.08l-3.67-1.83-3.67 1.83c-0.1 0.05-0.21998 0.08-0.32998 0.08-0.27 0-0.54002-0.15-0.67002-0.41-0.19-0.38-0.03997-0.83 0.34003-1.01l3.58-1.79v-2.54h1.5v2.54l3.58 1.79c0.38 0.18 0.53 0.63 0.34 1.01z"/>
 <path d="m7.4999 11.75c-0.21 0-0.42999-0.09-0.57999-0.27-0.27-0.32-0.22002-0.79 0.09998-1.06l3.15-2.63c0.29-0.24 0.66-0.33999 1.01-0.27999 0.36 0.06 0.67 0.27997 0.86 0.59997l1.05 1.75 2.93-2.44c0.32-0.27 0.79-0.22002 1.06 0.09998s0.22 0.78999-0.1 1.06l-3.15 2.63c-0.29 0.24-0.66 0.34-1.01 0.28-0.36-0.06-0.67-0.28-0.86-0.6l-1.05-1.75-2.93 2.44c-0.14 0.11-0.31001 0.17-0.48001 0.17z"/>
</svg>

<svg width="24" height="24" viewBox="0 0 24 24"  xmlns="http://www.w3.org/2000/svg">
<path opacity="0.4" d="M21 2V14.1C21 16 20 17 18.1 17H5.89999C3.99999 17 3 16 3 14.1V2H21Z" />
<path d="M22 2.75H2C1.59 2.75 1.25 2.41 1.25 2C1.25 1.59 1.59 1.25 2 1.25H22C22.41 1.25 22.75 1.59 22.75 2C22.75 2.41 22.41 2.75 22 2.75Z" />
<path d="M16.6698 22.34C16.5398 22.6 16.2698 22.75 15.9998 22.75C15.8898 22.75 15.7698 22.72 15.6698 22.67L11.9998 20.84L8.32976 22.67C8.22976 22.72 8.10978 22.75 7.99978 22.75C7.72978 22.75 7.45976 22.6 7.32976 22.34C7.13976 21.96 7.28979 21.51 7.66979 21.33L11.2498 19.54V17H12.7498V19.54L16.3298 21.33C16.7098 21.51 16.8598 21.96 16.6698 22.34Z" />
<path d="M7.49993 11.7499C7.28993 11.7499 7.06994 11.6599 6.91994 11.4799C6.64994 11.1599 6.69992 10.6899 7.01992 10.4199L10.1699 7.78993C10.4599 7.54993 10.8299 7.44994 11.1799 7.50994C11.5399 7.56994 11.8499 7.78991 12.0399 8.10991L13.0899 9.85991L16.0199 7.41994C16.3399 7.14994 16.8099 7.19992 17.0799 7.51992C17.3499 7.83992 17.2999 8.30991 16.9799 8.57991L13.8299 11.2099C13.5399 11.4499 13.1699 11.5499 12.8199 11.4899C12.4599 11.4299 12.1499 11.2099 11.9599 10.8899L10.9099 9.13994L7.97994 11.5799C7.83994 11.6899 7.66993 11.7499 7.49993 11.7499Z" />
</svg>
